!!!!SEGMENT: pl-wn--mus-iii-86-031-1_zelenski-wladyslaw--piesni-dudarza-ide-ja-niemnem.krn
!!!cenid: 18xx:3775
!!!COM: Żeleński, Władysław
!!!COM-rismID: pe41024455
!!!CDT: 1837/07/06-1921/01/23
!!!CNT: Polish
!!!OTL: Pieśni Dudarza/Idę ja Niemnem
!!!PDT:
!!!AGN:
!!!SMS-siglum: PL-Wn
!!!SMS-shelfmark: Mus.III.86.031/1
!!!SMS-shelfwork: W
!!!SMS-variant:
!!!SMS-altvar:
!!!NIFC-rismSourceID:
!!!NIFC-islandoraID:
!!!URL-pdf-islandora:
!!!URL-scan: https://polona.pl/item/piesni-dudarza-z-ballady-a-mickiewicza-1-ide-ja-niemnem,NzQ2OTgyMDE/0/#info:metadata @EN{Scan on Polona} @PL{Skany w portalu Polona}
!!!ONB-nifc:
!!!OMD: Andante sostenuto ma non troppo lento.
!!!AIN: 1 piano 1 vox
!!!key: b
**kern	**kern	**dynam	**kern	**text	**dynam
*part2	*part2	*part2	*part1	*part1	*part1
*staff3	*staff2	*	*staff1	*staff1	*
*I"Fortepian.	*I"Fortepian.	*	*I"Śpiew.	*	*
*Ipiano	*Ipiano	*	*Ivox	*	*
*ICklav	*ICklav	*	*ICvox	*	*
*clefF4	*clefG2	*	*clefG2	*	*
*k[f#c#]	*k[f#c#]	*	*k[f#c#]	*	*
*b:	*b:	*	*b:	*	*
*M9/8	*M9/8	*	*M9/8	*	*
=1	=1	=1	=1	=1	=1
*^	*	*	*	*	*
(4.FF#/	[2.BBB\	8r	p	8%9r	.	.
.	.	(16d/LL 16f#	.	.	.	.
.	.	16e/J) 16g	.	.	.	.
.	.	8f#'/J 8a	.	.	.	.
2.BB/)	.	8r	.	.	.	.
.	.	(16d/LL 16f#	<	.	.	.
.	.	16c#/J) 16e	.	.	.	.
.	.	8B'/J 8d	.	.	.	.
.	4.BBB\]	(8A'/L 8c#	[ >	.	.	.
.	.	8G'/ 8B	.	.	.	.
.	.	8B'/J) 8d	]]	.	.	.
=2	=2	=2	=2	=2	=2	=2
(4.FF#/	[2.BBB\	8r	pp	8%9r	.	.
.	.	(16B/LL 16d	.	.	.	.
.	.	16c#/J) 16e	.	.	.	.
.	.	8d'/J 8f#	.	.	.	.
2.BB/)	.	8r	.	.	.	.
.	.	(16B/LL 16d	.	.	.	.
.	.	16A/J) 16c#	.	.	.	.
.	.	8G'/J 8B	.	.	.	.
.	4.BBB\]	(8F#'/L 8A	.	.	.	.
.	.	8E'/ 8G	.	.	.	.
.	.	8G'/J) 8B	.	.	.	.
=3	=3	=3	=3	=3	=3	=3
*	*	*^	*	*	*	*
4.FF#/	[2.BBB\	(4d/	8F#\L	<	8%9r	.	.
.	.	.	16E\L	.	.	.	.
.	.	.	16F#\J	.	.	.	.
.	.	8c#/)	8G\J	.	.	.	.
2.BB/	.	(4d/	8F#\L	.	.	.	.
.	.	.	16E\L	.	.	.	.
.	.	.	16F#\J	.	.	.	.
.	.	8c#/)	8G\J	[	.	.	.
.	4.BBB\]	(4d/	8F#\L	>	.	.	.
.	.	.	16E\L	.	.	.	.
.	.	.	16F#\J	.	.	.	.
.	.	8c#/)	8G\J	]]	.	.	.
*v	*v	*	*	*	*	*	*
!!LO:LB:g=original
=4	=4	=4	=4	=4	=4	=4
2.BBB/ 2.BB	4d/	8B\L	p	4r	.	.
.	.	8F#\	.	.	.	.
.	(8c#/	8B\J	.	8r	.	.
.	4d/)	8B\L	.	4r	.	.
.	.	8E#X\	.	.	.	.
.	(8c#/	8B\J	.	8r	.	.
!	!	!	!	!	!	!LO:DY:a
4.BBB/ 4.BB	4d/)	8d\L	.	8f#/	I-	p
.	.	8F#\	.	8f#/	-dę	.
.	(8c#/	8B\J	.	8f#/	ja	.
=5	=5	=5	=5	=5	=5	=5
2.BBB/ 2.BB	4d/)	8B\L	.	4.g/	Niem-	.
.	.	8E#X\	.	.	.	.
.	(8c#/	8B\J	.	.	.	.
.	4d/	8B\L	.	4f#/	-nem,	.
.	.	8F#\	.	.	.	.
.	8B/	8G#X\J	.	8f#/	jak	.
4.BBB/ 4.BB	4c#/)	8A#X\L	.	4f#/	Nie-	.
.	.	8F#\	.	.	.	.
.	(8e/	8c#\J	.	8f#/	-men	.
=6	=6	=6	=6	=6	=6	=6
2.BBB/ 2.BB	4d/)	8B\L	.	4.b\	dłu-	.
.	.	8F#\	.	.	.	.
.	(8e/	8c#\J	.	.	.	.
.	4f#/	8d\L	.	4.f#/	-gi,	.
.	.	8F#\	.	.	.	.
.	8e/	8c#\J	.	.	.	.
4.BBB/ 4.BB	4d/)	8B\L	<	4b\	Od	.
.	.	8F#\	.	.	.	.
.	(8e/	8c#\J	[[	8cc#\	wio-	.
=7	=7	=7	=7	=7	=7	=7
2.BBB/ 2.BB	4f#/)	8d\L	<	2.dd\	-secz-	.
.	.	8F#\	.	.	.	.
.	(8e/	8c#\J	[	.	.	.
.	4d/	8B\L	.	.	.	.
.	.	8F#\	.	.	.	.
.	8d/	8B\J	.	.	.	.
4.EEE/ 4.EE	4c#/)	8B\L	>	8cc#\	-ki	.
.	.	8G\	.	8b\	do	.
.	(8c#/	8B\J	]]	8g/	wio-	.
!!LO:LB:g=original
=8	=8	=8	=8	=8	=8	=8
2.BBB/ 2.BB	4d/)	8B\L	.	4.b\	-secz-	.
.	.	8F#\	.	.	.	.
.	(8e/	8c#\J	.	.	.	.
.	4f#/	8d\L	.	4.f#/	-ki,	.
.	.	8F#\	.	.	.	.
.	8e/	8c#\J	.	.	.	.
!	!	!	!LO:HP:t=poco cresc.	!	!	!LO:HP:a:t=poco cresc.
4.BBB/ 4.BB	4d/)	8B\L	<	8f#/	Z_bor-	<
.	.	8F#\	.	8f#/	-ku	.
.	(8d/	8B\J	.	8f#/	do	.
=9	=9	=9	=9	=9	=9	=9
2.EEE/ 2.EE	4c#/)	8B\L	.	4.a/	bor-	.
.	.	8G\	.	.	.	.
.	[8c#/	8B\J	.	.	.	.
.	4c#/]	8B\L	.	4.g/	-ku,	.
.	.	8G\	.	.	.	.
.	(8d/	8B\J	.	.	.	.
!	!	!	!	!	!	!LO:HP:a
4.EE/ 4.E	4e/)	8c#\L	.	8g/	z_smu-	<
.	.	8G\	.	8g/	-gi	.
.	(8e/	8c#\J	.	8g/	na	.
=10	=10	=10	=10	=10	=10	=10
2.EEE/ 2.EE	4d/)	8B\L	.	4.dd\	smu-	[
.	.	8G\	.	.	.	.
.	(8d/	8B\J	.	.	.	.
.	4c#/)	8B\L	.	[4.cc#\	-gi,	.
.	.	8G\	.	.	.	.
.	8c#/	8B\J	.	.	.	.
4.EE/ 4.E	4c#/	8A#X\L	.	4cc#\]	.	.
.	.	8F#\	.	.	.	.
.	8c#/	8A#\J	.	8f#/	Śpie-	.
=11	=11	=11	=11	=11	=11	=11
!	!	!	!	!	!	!LO:HP:a
2.DD/ 2.D	4d/	8B\L	<	[4.b\	-wa-	<
.	.	8F#\	.	.	.	.
.	(8e/	8c#\J	.	.	.	.
.	4d/)	8B\L	.	4b\]	.	.
.	.	8F#\	.	.	.	.
.	(8f#/	8B\J	[	8f#/	-jąc	[
4.CC#/ 4.C#	4e/)	8B\L	>	8a/	mo-	.
.	.	8G\	.	8g/	-je	.
.	(8e/	8B\J	]]	8e/	pio-	.
!!LO:PB:g=original
=12	=12	=12	=12	=12	=12	=12
!	!	!	!	!	!	!LO:HP:a
2.FF#/	4d/)	8B\L	.	4.d/	-snecz-	>
.	.	8F#\	.	.	.	.
.	(8B/	8G#X\J	.	.	.	.
.	4c#/)	8A#X\L	.	[4.c#/	-ki.	]
.	.	8F#\	.	.	.	.
.	(8B/	8G#\J	.	.	.	.
[>4.FF#/	4c#/)	8A#\L	.	8c#/]	.	.
.	.	8F#\	.	8r	.	.
.	(8d/	8B\J	.	8r	.	.
=13	=13	=13	=13	=13	=13	=13
4FFF#/ 4FF#]	8c#/L) 8e	2.ryy	<	8%9r	.	.
.	(16c#/L 16e	.	.	.	.	.
.	16d/J 16f#	.	.	.	.	.
8r	8e/J) 8g	.	.	.	.	.
2.FFF#/ 2.FF#	8r	.	.	.	.	.
.	8c#'/L 8e	.	.	.	.	.
.	8G'/J 8B	.	[	.	.	.
.	(4A#X/	8F#\L	.	.	.	.
.	.	16E\L	.	.	.	.
.	.	16F#\J	.	.	.	.
.	8c#/)	8G\J	.	.	.	.
*	*v	*v	*	*	*	*
=14	=14	=14	=14	=14	=14
*ped	*	*	*	*	*
[4.BBB/ [4.BB	(16F#/LL 16d#X	pp	4r	.	.
.	16B/	.	.	.	.
.	16d#/	.	.	.	.
.	16f#/	.	.	.	.
.	16d#/	.	8r	.	.
.	16B/JJ	.	.	.	.
8BBB/] 8BB]	16F#/LL	.	4r	.	.
.	16B/	.	.	.	.
8r	16d#/	.	.	.	.
.	16f#/	.	.	.	.
8r	16d#/	.	8r	.	.
.	16B/JJ	.	.	.	.
*Xped	*	*	*	*	*
!	!	!	!LO:TX:a:i:t=poco misterioso	!	!
4r	16F#/LL	.	8f#/	Wszy-	.
.	16B/	.	.	.	.
.	16d#/	.	8f#/	-scy	.
.	16f#/	.	.	.	.
8r	16d#/	.	8f#/	się	.
.	16B/JJ)	.	.	.	.
!!LO:LB:g=original
=15	=15	=15	=15	=15	=15
*ped	*	*	*	*	*
[<4.DDn:/ [>4.AA: [>4.Dn:	(16F#/LL	.	4.a/	zbie-	.
.	16A/	.	.	.	.
.	16dn/	.	.	.	.
.	16f#/	.	.	.	.
.	16d/	.	.	.	.
.	16A/JJ	.	.	.	.
8DD/] 8AA] 8D]	16F#/LL	.	4.f#/	-gli,	.
.	16A/	.	.	.	.
8r	16d/	.	.	.	.
.	16f#/	.	.	.	.
8r	16d/	.	.	.	.
.	16A/JJ	.	.	.	.
*Xped	*	*	*	*	*
!	!	!	!	!	!LO:HP:a
4r	16F#/LL	<	8f#/	wszys-	<
.	16A/	.	.	.	.
.	16B/	.	8g/	-cy	.
.	16d/	.	.	.	.
8r	16cn/	.	8a/	slu-	[[
.	16A/JJ)	[[	.	.	.
=16	=16	=16	=16	=16	=16
*ped	*	*	*	*	*
!	!	!	!	!	!LO:HP:a
4GGG:/ 4DD: 4GG:	(16B/LL	>	4.b\	-cha-	>
.	16d/	.	.	.	.
.	16g/	.	.	.	.
.	16b/	.	.	.	.
8r	16g/	.	.	.	.
.	16d/JJ	]	.	.	.
4GG:/ 4D: 4G:	16B/LL	.	[4.g/	-li.	]
.	16d/	.	.	.	.
.	16g/	.	.	.	.
.	16b/	.	.	.	.
*Xped	*	*	*	*	*
8r	16g/	.	.	.	.
.	16d/JJ	.	.	.	.
4r	16B/LL	<	8g/]	.	.
.	16d/	.	.	.	.
.	16e/	.	8r	.	.
.	16g/	.	.	.	.
8r	16fn/	.	8r	.	.
.	16d/JJ)	[[	.	.	.
=17	=17	=17	=17	=17	=17
!	!	!	!LO:TX:a:i:t=espress.	!	!
2.CCn/ 2.GG 2.Cn	(16e/LL	.	[4.ccn\	A-	.
.	16g/	.	.	.	.
.	16ccn/	.	.	.	.
.	16g/	.	.	.	.
.	16e/	.	.	.	.
.	16cn/JJ	.	.	.	.
.	16G/LL	.	8cc\]	.	.
.	16c/	.	.	.	.
.	16e/	.	8b\	-le	.
.	16g/	.	.	.	.
.	16e/	.	8a/	nikt	.
.	16c/JJ	.	.	.	.
4.CC/ 4.GG 4.C	16G/LL	.	8g/	mię	.
.	16B/	.	.	.	.
.	16fn/	.	8d/	nie	.
.	16g/	.	.	.	.
.	16f/	.	8fn/	ro-	.
.	16B/JJ	.	.	.	.
!!LO:LB:g=original
=18	=18	=18	=18	=18	=18
*	*^	*	*	*	*
[<4.CCn/ [>4.GG [>4.Cn	16G/LL	2.ryy	.	4.e/	-zu-	.
.	16cn/	.	.	.	.	.
.	16e/	.	.	.	.	.
.	16g/	.	.	.	.	.
.	16ccn/	.	.	.	.	.
.	16ee/JJ	.	.	.	.	.
4CC/] 4GG] 4C]	8gg/L)	.	.	4e/	-mie,	.
.	8G/	.	.	.	.	.
!	!	!	!	!	!	!LO:HP:a:t=cresc. poco a poco
8r	8c/J	.	.	8e/	Ja	<
!	!	!	!LO:HP:t=cresc. poco a poco	!	!	!
4.CC/ 4.C	4e/	8e\L	<	4e/	łzy	.
.	.	8G\	.	.	.	.
.	8ryy	8c\J	.	8e/	o-	.
=19	=19	=19	=19	=19	=19	=19
4.BBB/ 4.BB	[2.e/	8d\L	.	4.g/	-cie-	.
.	.	8G\	.	.	.	.
.	.	8c#\J	.	.	.	.
2.AAA#X/ 2.AA#X	.	8d\L	.	4f#/	-ram,	.
.	.	8F#\	.	.	.	.
.	.	8c#\J	.	8f#/	west-	.
.	4.e/]	8d\L	.	4f#/	-chnie-	.
.	.	8F#\	.	.	.	.
.	.	8c#\J	.	8f#/	-nia	.
=20	=20	=20	=20	=20	=20	=20
((4.BBB/ 4.BB	[2.e/	8d\L	.	4.dd\	tłu-	.
.	.	8G\	.	.	.	.
.	.	8c#\J	.	.	.	.
4.AAA#X/)) 4.AA#X	.	8d\L	.	4cc#\	-mię,	.
.	.	8F#\	.	.	.	.
.	.	8c#\J	.	8f#/	I	.
4.AAAn/ 4.AAn	4e/]	8cn\L	.	4f#/	i-	.
.	.	8F#\	.	.	.	.
.	(8d#X/	8c\J	.	8f#/	-dę	.
=21	=21	=21	=21	=21	=21	=21
4.GGG/ 4.GG	4e/	8B\L	.	(4b\	da-	.
.	.	8G\	.	.	.	.
.	8f#/	8d#X\J	.	8a/)	.	.
!	!	!	!	!	!	!LO:HP:a
4.EEE/ 4.EE	4g/)	8e\L	<	4g/	-lej,	<
.	.	8B\	.	.	.	.
.	(8g/	8e\J	.	8a/	i	.
4.DD/ 4.D	4f#/)	8B\L	.	4b\	i-	.
.	.	8F#\	.	.	.	.
.	8f#/	8B\J	[[	8cc#\	-dę	[[
!!LO:LB:g=original
=22	=22	=22	=22	=22	=22	=22
!	!LO:TX:b:i:t=espress.	!	!	!LO:TX:a:i:t=espress.	!	!
[2.CC#/ [2.C#	4f#/	8d\L	.	4.dd\	da-	.
.	.	8G#X\	.	.	.	.
.	(8f#/	8d\J	.	.	.	.
.	4e#X/)	8c#\L	.	[4.e#X/	-lej,	.
.	.	8G#\	.	.	.	.
.	(8d/	8B\J	.	.	.	.
4.CC#/] 4.C#]	4B/)	8G#X\L	.	4e#/]	.	.
.	.	8E#X\	.	.	.	.
.	8c#/	8B\J	.	8cc#\	a	.
=23	=23	=23	=23	=23	=23	=23
!	!	!	!	!	!	!LO:HP:a
[2.FFF#/ [2.FF#	(4c#/	8A#X\L	.	4.cc#\	da-	>
.	.	8F#\	>	.	.	.
.	8B/	8G#X\J	.	.	.	.
.	4c#/	8A#\L	.	[4.f#/	-lej.	.
.	.	8F#\	.	.	.	.
.	8d/	8B\J	.	.	.	.
4.FFF#/_ 4.FF#_	4e/)	8c#\L	.	8f#/]	.	.
.	.	8F#\	]	8r	.	]
.	(8d/	8B\J	.	8r	.	.
=24	=24	=24	=24	=24	=24	=24
4FFF#/] 4FF#]	8c#X/L) 8e	2.ryy	.	8%9r	.	.
.	(16c#/L 16e	.	<	.	.	.
.	16d/J 16f#	.	.	.	.	.
8r	8e/J) 8g	.	.	.	.	.
((2.FFF#/ 2.FF#	8r	.	.	.	.	.
.	(8c#'/L 8e	.	.	.	.	.
*	*clefF4	*	*	*	*	*
.	8G'/J) 8B	.	[	.	.	.
.	(4A#X/	(8F#\L	>	.	.	.
.	.	16E\L	.	.	.	.
.	.	16F#\J	.	.	.	.
.	8c#/)	8G\J)	]]	.	.	.
*	*v	*v	*	*	*	*
*	*clefG2	*	*	*	*
=25	=25	=25	=25	=25	=25
[4.BBB/)) [4.BB	16F#/LL 16d#X	pp	4r	.	.
.	16B/	.	.	.	.
.	16d#/	.	.	.	.
.	16f#/	.	.	.	.
.	16d#/	.	8r	.	.
.	16B/JJ	.	.	.	.
8BBB/] 8BB]	16F#/LL	.	4r	.	.
.	16B/	.	.	.	.
8r	16d#/	.	.	.	.
.	16f#/	.	.	.	.
8r	16d#/	.	8r	.	.
.	16B/JJ	.	.	.	.
!	!	!	!LO:TX:a:i:t=con duolo	!	!
4r	16F#/LL	.	8f#/	Kto	.
.	16B/	.	.	.	.
.	16d#/	.	8f#/	mię	.
.	16f#/	.	.	.	.
8r	16d#/	.	8f#/	zro-	.
.	16B/JJ	.	.	.	.
!!LO:PB:g=original
=26	=26	=26	=26	=26	=26
[<4.DDn:/ [<4.AA: [>4.Dn:	16F#/LL	.	4.a/	-zu-	.
.	16A/	.	.	.	.
.	16dn/	.	.	.	.
.	16f#/	.	.	.	.
.	16d/	.	.	.	.
.	16A/JJ	.	.	.	.
8DD/] 8AA] 8D]	16F#/LL	.	4.f#/	-mie,	.
.	16A/	.	.	.	.
8r	16d/	.	.	.	.
.	16f#/	.	.	.	.
8r	16d/	.	.	.	.
.	16A/JJ	.	.	.	.
!	!	!	!	!	!LO:HP:a
4r	16F#/LL	<	8f#/	Ten	<
.	16A/	.	.	.	.
.	16B/	.	8g/	się	.
.	16d/	.	.	.	.
8r	16cn/	.	8a/	u-	[[
.	16A/JJ	[[	.	.	.
=27	=27	=27	=27	=27	=27
4GGG:/ 4DD: 4GG:	16B/LL	>	4.b/	-ża-	.
.	16d/	.	.	.	.
.	16g/	.	.	.	.
.	16b/	.	.	.	.
8r	16g/	.	.	.	.
.	16d/JJ	.	.	.	.
4GG:/ 4D: 4G:	16B/LL	]	[4.g/	-li,	.
.	16d/	.	.	.	.
.	16g/	.	.	.	.
.	16b/	.	.	.	.
8r	16g/	.	.	.	.
.	16d/JJ	.	.	.	.
4r	16B/LL	<	8g/]	.	.
.	16d/	.	.	.	.
.	16e/	.	8r	.	.
.	16g/	.	.	.	.
8r	16fn/	.	8g/	I	.
.	16d/JJ	[[	.	.	.
!!LO:LB:g=original
=28	=28	=28	=28	=28	=28
*ped	*	*	*	*	*
!	!	!	!LO:TX:a:i:t=espress.	!	!
2.CCn/ 2.GG 2.Cn	(16e/LL	.	[4.ccn\	w_bia-	.
.	16g/	.	.	.	.
.	16ccn/	.	.	.	.
.	16g/	.	.	.	.
.	16e/	.	.	.	.
.	16cn/JJ	.	.	.	.
.	16G/LL	.	8cc\]	.	.
.	16c/	.	.	.	.
.	16e/	.	8b\	-łe	.
.	16g/	.	.	.	.
.	16e/	.	8a/	u-	.
.	16c/JJ	.	.	.	.
4.CC/ 4.GG 4.C	16G/LL	.	8g/L	-de-	.
*Xped	*	*	*	*	*
.	16B/	.	.	.	.
.	16fn/	.	8d/J	.	.
.	16g/	.	.	.	.
.	16f/	.	8fn/	-rzy	.
.	16B/JJ	.	.	.	.
=29	=29	=29	=29	=29	=29
*ped	*	*	*	*	*
[<4.CCn/ [<4.GG [>4.Cn	16G/LL	.	4.e/	dło-	.
.	16cn/	.	.	.	.
.	16e/	.	.	.	.
.	16g/	.	.	.	.
.	16ccn/	.	.	.	.
.	16ee/JJ	.	.	.	.
4CC/] 4GG] 4C]	8gg/L)	.	4e/	-nie;	.
.	(8G/	.	.	.	.
*Xped	*	*	*	*	*
8r	8c/J	.	8e/	U-	.
(4.CC/ 4.C	8e/L	.	4e/	-ro-	.
.	8G/	.	.	.	.
.	8c/J)	.	8e/	-ni	.
=30	=30	=30	=30	=30	=30
*	*^	*	*	*	*
4.BBB/ 4.BB	[4.e^/	8d\L	.	4.g/	łez-	.
.	.	8G\	.	.	.	.
.	.	8d\J	.	.	.	.
!	!	!	!	!	!	!LO:HP:a
4.AAA#X/) 4.AA#X	4.e/]	8c#\L	.	4f#/	-kę,	<
.	.	8F#\	<	.	.	.
.	.	8c#\J	.	8f#/	i	.
((4.AAAn/ 4.AAn	(4e/	8cn\L	.	4f#/	ja	.
.	.	8F#\	.	.	.	.
.	8d#X/	8c\J	[[	8f#/	u-	[[
!!LO:LB:g=original
=31	=31	=31	=31	=31	=31	=31
2.GGG/)) 2.GG	4d#X/) 4f#	8cn\L	.	4.ccn\	-ro-	.
.	.	8A\	.	.	.	.
.	(8d#/	8c\J	.	.	.	.
!	!	!	!	!	!	!LO:HP:a
.	4e/)	8B\L	<	[4.b\	-nię,	<
.	.	8G\	.	.	.	.
.	(8f#/	8d#\J	.	.	.	.
4.EEE/ 4.EE	4g/)	8e\L	.	8b\]	.	.
.	.	8G\	.	8b\	A-	.
.	(8e/	8c#X\J	.	8cc#X\	-le	.
=32	=32	=32	=32	=32	=32	=32
2.FFF#/ 2.FF#	4dn/)	8B\L	[	[4.dd\	już	.
.	.	8F#\	.	.	.	.
.	(8e/	8c#\J	.	.	.	.
.	4f#/	8d\L	.	4dd\]	.	.
.	.	8F#\	.	.	.	.
.	8d/	8B\J	.	8b\	nie	.
4.EE/ 4.E	4c#/)	8A#X\L	.	4a#X/	pój-	.
.	.	8F#\	.	.	.	.
.	(8c#/	8A#\J	.	8cc#\	-dę	.
=33	=33	=33	=33	=33	=33	=33
!	!	!	!LO:DY:rj	!	!	!LO:DY:a
2.DD/ 2.D	4f#/)	8B\L	mf	[4.f#j/ [4.ff#	da-	f
.	.	8F#\	.	.	.	.
.	(8B/	8G#X\J	.	.	.	.
.	4c#/	8A#X\L	.	4f#j/] 4ff#]	.	.
.	.	8F#\	.	.	.	.
!	!	!	!	!	!	!LO:HP:a
.	8e/	8c#\J	<	8ej/ 8ee	-lej,	<
4.EEE/ 4.EE	4d/)	8B\L	.	8dj/L 8dd	a-	.
.	.	8G#\	.	8c#j/J 8cc#	.	.
.	(8c#/	8B\J	[[	8Bj/ 8b	-le	[[
=34	=34	=34	=34	=34	=34	=34
*	*	*	*	*^	*	*
((4.FFF#/ 4.FF#	4d/)	8B\L	.	4dj/ 4dd	4.ryy	już	.
.	.	8D\	.	.	.	.	.
.	(8B/	8G\J	.	8Bj/ 8b	.	nie	.
!	!	!	!	!	!	!	!LO:HP:a
4.EEE#X/)) 4.EE#X	4d/)	8B\L	.	[4.g/	[4.g\	pój-	>
.	.	8D\	.	.	.	.	.
.	(8B/	8G\J	>	.	.	.	.
4.FFF#/ 4.FF#	4A#X/) 4d	8G\L	.	4g/]	4g\]	.	.
.	.	8E\	.	.	.	.	.
.	(8A#/	8G\J	]]	8A#Xj/ 8a#X	8ryy	-dę	]]
*	*	*	*	*v	*v	*	*
!!LO:LB:g=original
=35	=35	=35	=35	=35	=35	=35
2.BBB/ 2.BB	4A#X/) 4c#	8G\L	.	4.c#j/ 4.cc#	da-	.
.	.	8E\	.	.	.	.
.	(8A#/	8G\J	.	.	.	.
.	4B/	8F#\L	.	[4.Bj/ [4.b	-lej.	.
.	.	8D\	.	.	.	.
.	8c#/	8An\J	<	.	.	.
4.BBB/ 4.BB	4d/)	8B\L	.	8Bj/] 8b]	.	.
.	.	8F#\	.	8r	.	.
.	(8e/	8c#\J	[[	8r	.	.
*	*v	*v	*	*	*	*
=36	=36	=36	=36	=36	=36
*^	*	*	*	*	*
(4.FF#/	[2.BBB\	8d/L) 8f#	pp	8%9r	.	.
.	.	(16d/L 16f#	.	.	.	.
.	.	16e/J) 16g	.	.	.	.
.	.	8f#'/J 8a	.	.	.	.
2.BB/)	.	8r	.	.	.	.
.	.	(16d/LL 16f#	.	.	.	.
.	.	16c#/J) 16e	.	.	.	.
.	.	8B'/J 8d	.	.	.	.
.	4.BBB\]	(8A'/L 8c#	.	.	.	.
.	.	8G'/ 8B	.	.	.	.
.	.	8B'/J) 8d	.	.	.	.
=37	=37	=37	=37	=37	=37	=37
4.FF#/	[2.BBB\	8r	.	8%9r	.	.
.	.	(16B/LL 16d	.	.	.	.
.	.	16c#/J) 16e	.	.	.	.
.	.	8d'/J 8f#	.	.	.	.
2.BB/	.	8r	.	.	.	.
.	.	(16B/LL 16d	<	.	.	.
.	.	16A/J) 16c#	.	.	.	.
.	.	8G'/J 8B	.	.	.	.
*	*	*clefF4	*	*	*	*
.	4.BBB\]	(8F#'\L 8A	.	.	.	.
.	.	8E'\ 8G	.	.	.	.
.	.	8G'\J) 8B	[[	.	.	.
*v	*v	*	*	*	*	*
=38	=38	=38	=38	=38	=38
*ped	*	*	*	*	*
N(16BBB/LL	8F#\ 8d	pp	8%9r	.	.
16BB/	.	.	.	.	.
16F#/JJ	16r	.	.	.	.
*	*clefG2	*	*	*	*
2...ryy	16B/LL	.	.	.	.
.	16d/	.	.	.	.
.	16f#/JJ	.	.	.	.
*Xped	*	*	*	*	*
.	2.b/N)	.	.	.	.
==	==	==	==	==	==
*-	*-	*-	*-	*-	*-
!!!system-decoration: s1{(s2,s3)}
!!!RDF**kern: < = below
!!!RDF**kern: > = above
!!!RDF**kern: j = cue size
!!!RDF**kern: N = linked
!!!ENC: Filip Voros
!!!END: 2022-03-23
!!!ENC: Marta Chmielewska
!!!END: 2022-03-27
